;FLAVOR:Marlin
;TIME:470
;Filament used: 0.196797m
;Layer height: 0.2
;MINX:91
;MINY:94
;MINZ:0.2
;MAXX:129
;MAXY:126
;MAXZ:6
;Generated with Creality Slicer 4.8.2-205
M140 S60
M105
M190 S60
M104 S200
M105
M109 S200
M82 ;absolute extrusion mode

G28 ;Home

G92 E0 ;Reset Extruder
G1 Z2.0 F3000 ;Move Z Axis up
G1 X10.1 Y20 Z0.28 F5000.0 ;Move to start position
G1 X10.1 Y200.0 Z0.28 F1500.0 E15 ;Draw the first line
G1 X10.4 Y200.0 Z0.28 F5000.0 ;Move to side a little
G1 X10.4 Y20 Z0.28 F1500.0 E30 ;Draw the second line
G92 E0 ;Reset Extruder
G1 Z2.0 F3000 ;Move Z Axis up

G92 E0
G92 E0
G1 F3600 E-5
;LAYER_COUNT:30
;LAYER:0
M107
G0 F6000 X96.213 Y97.388 Z0.2
;TYPE:SKIRT
G1 F3600 E0
G1 F1200 X96.891 Y96.74 E0.03119
G1 X97.622 Y96.152 E0.0624
G1 X98.4 Y95.629 E0.09358
G1 X99.22 Y95.174 E0.12477
G1 X100.076 Y94.79 E0.15597
G1 X100.961 Y94.481 E0.18715
G1 X101.869 Y94.248 E0.21833
G1 X102.794 Y94.093 E0.24952
G1 X103.803 Y94.015 E0.28318
G1 X104.125 Y94.005 E0.2939
G1 X104.466 Y94 E0.30524
G1 X115.157 Y94 E0.66082
G1 X116.015 Y94.011 E0.68936
G1 X116.951 Y94.064 E0.72054
G1 X117.88 Y94.197 E0.75176
G1 X118.793 Y94.409 E0.78293
G1 X119.686 Y94.697 E0.81414
G1 X120.55 Y95.061 E0.84532
G1 X121.381 Y95.497 E0.87654
G1 X122.171 Y96.002 E0.90772
G1 X122.915 Y96.572 E0.93889
G1 X123.608 Y97.204 E0.97009
G1 X124.245 Y97.893 E1.0013
G1 X124.821 Y98.633 E1.03249
G1 X125.332 Y99.42 E1.0637
G1 X125.883 Y100.482 E1.10349
G1 X126.374 Y101.572 E1.14325
G1 X126.526 Y101.921 E1.15591
G1 X127.935 Y104.902 E1.26558
G1 X128.299 Y105.766 E1.29676
G1 X128.589 Y106.658 E1.32796
G1 X128.801 Y107.572 E1.35917
G1 X128.935 Y108.5 E1.39035
G1 X128.984 Y109.25 E1.41535
G1 X128.995 Y109.655 E1.42882
G1 X129 Y110.117 E1.44419
G1 X128.999 Y114.4 E1.58664
G1 X128.99 Y115.127 E1.61083
G1 X128.939 Y116.064 E1.64204
G1 X128.807 Y116.992 E1.67321
G1 X128.598 Y117.906 E1.7044
G1 X128.311 Y118.799 E1.7356
G1 X127.949 Y119.665 E1.76681
G1 X127.515 Y120.496 E1.798
G1 X127.011 Y121.287 E1.82919
G1 X126.442 Y122.032 E1.86037
G1 X125.811 Y122.727 E1.89159
G1 X125.124 Y123.365 E1.92278
G1 X124.385 Y123.942 E1.95396
G1 X123.599 Y124.454 E1.98516
G1 X122.773 Y124.897 E2.01633
G1 X121.911 Y125.269 E2.04756
G1 X121.022 Y125.565 E2.07872
G1 X120.11 Y125.785 E2.10993
G1 X119.183 Y125.926 E2.14111
G1 X118.299 Y125.987 E2.17059
G1 X117.978 Y125.996 E2.18127
G1 X117.67 Y126 E2.19151
G1 X102.565 Y125.999 E2.69391
G1 X101.867 Y125.99 E2.71712
G1 X100.931 Y125.938 E2.7483
G1 X100.002 Y125.806 E2.77951
G1 X99.088 Y125.596 E2.8107
G1 X98.195 Y125.309 E2.8419
G1 X97.33 Y124.946 E2.8731
G1 X96.499 Y124.512 E2.90428
G1 X95.708 Y124.008 E2.93548
G1 X94.963 Y123.438 E2.96668
G1 X94.269 Y122.807 E2.99788
G1 X93.632 Y122.12 E3.02904
G1 X93.055 Y121.38 E3.06025
G1 X92.543 Y120.594 E3.09145
G1 X92.1 Y119.767 E3.12265
G1 X91.729 Y118.906 E3.15383
G1 X91.433 Y118.016 E3.18503
G1 X91.214 Y117.104 E3.21622
G1 X91.073 Y116.177 E3.24741
G1 X91.013 Y115.288 E3.27705
G1 X91.004 Y114.955 E3.28813
G1 X91 Y114.658 E3.298
G1 X91.001 Y110.153 E3.44784
G1 X91.011 Y109.45 E3.47123
G1 X91.064 Y108.513 E3.50244
G1 X91.197 Y107.585 E3.53362
G1 X91.409 Y106.671 E3.56483
G1 X91.697 Y105.779 E3.596
G1 X92.053 Y104.931 E3.62659
G1 X92.412 Y104.167 E3.65467
G1 X93.036 Y102.88 E3.70224
G1 X94.12 Y100.481 E3.7898
G1 X94.542 Y99.643 E3.82101
G1 X95.034 Y98.845 E3.85219
G1 X95.592 Y98.091 E3.88339
G1 X96.213 Y97.388 E3.91458
G0 F6000 X96.548 Y97.617
G1 F1200 X97.218 Y96.985 E3.94522
G1 X97.941 Y96.415 E3.97584
G1 X98.71 Y95.909 E4.00646
G1 X99.52 Y95.472 E4.03707
G1 X100.365 Y95.106 E4.0677
G1 X101.239 Y94.816 E4.09832
G1 X102.134 Y94.602 E4.12893
G1 X103.045 Y94.467 E4.15956
G1 X103.815 Y94.415 E4.18523
G1 X104.137 Y94.405 E4.19595
G1 X104.466 Y94.4 E4.20689
G1 X115.157 Y94.4 E4.56247
G1 X116.009 Y94.411 E4.59081
G1 X116.928 Y94.464 E4.62143
G1 X117.839 Y94.597 E4.65205
G1 X118.735 Y94.808 E4.68267
G1 X119.61 Y95.096 E4.71331
G1 X120.456 Y95.459 E4.74393
G1 X121.267 Y95.894 E4.77453
G1 X122.038 Y96.398 E4.80517
G1 X122.762 Y96.967 E4.8358
G1 X123.434 Y97.596 E4.86641
G1 X124.049 Y98.281 E4.89703
G1 X124.602 Y99.017 E4.92765
G1 X125.089 Y99.799 E4.95829
G1 X125.518 Y100.647 E4.9899
G1 X126.007 Y101.731 E5.02945
G1 X126.167 Y102.098 E5.04277
G1 X127.573 Y105.073 E5.15221
G1 X127.93 Y105.922 E5.18284
G1 X128.212 Y106.798 E5.21345
G1 X128.417 Y107.696 E5.24409
G1 X128.543 Y108.608 E5.27471
G1 X128.585 Y109.263 E5.29654
G1 X128.595 Y109.66 E5.30975
G1 X128.6 Y110.117 E5.32495
G1 X128.599 Y114.395 E5.46724
G1 X128.59 Y115.122 E5.49142
G1 X128.539 Y116.041 E5.52203
G1 X128.408 Y116.953 E5.55268
G1 X128.198 Y117.849 E5.58328
G1 X127.912 Y118.724 E5.6139
G1 X127.551 Y119.571 E5.64452
G1 X127.117 Y120.383 E5.67515
G1 X126.615 Y121.155 E5.70578
G1 X126.047 Y121.88 E5.73641
G1 X125.419 Y122.553 E5.76702
G1 X124.735 Y123.169 E5.79764
G1 X124 Y123.723 E5.82825
G1 X123.22 Y124.212 E5.85887
G1 X122.4 Y124.631 E5.8895
G1 X121.547 Y124.977 E5.92012
G1 X120.667 Y125.248 E5.95074
G1 X119.767 Y125.441 E5.98136
G1 X118.853 Y125.556 E6.012
G1 X118.288 Y125.587 E6.03082
G1 X117.967 Y125.596 E6.0415
G1 X117.67 Y125.6 E6.05138
G1 X102.57 Y125.599 E6.5536
G1 X101.872 Y125.59 E6.57682
G1 X100.953 Y125.538 E6.60744
G1 X100.042 Y125.407 E6.63805
G1 X99.146 Y125.197 E6.66866
G1 X98.271 Y124.91 E6.69928
G1 X97.424 Y124.548 E6.72992
G1 X96.612 Y124.114 E6.76054
G1 X95.841 Y123.612 E6.79114
G1 X95.116 Y123.044 E6.82178
G1 X94.443 Y122.415 E6.85242
G1 X93.828 Y121.731 E6.88301
G1 X93.274 Y120.996 E6.91362
G1 X92.786 Y120.215 E6.94425
G1 X92.367 Y119.395 E6.97488
G1 X92.021 Y118.542 E7.00549
G1 X91.751 Y117.662 E7.03611
G1 X91.558 Y116.761 E7.06676
G1 X91.444 Y115.848 E7.09736
G1 X91.413 Y115.277 E7.11638
G1 X91.404 Y114.944 E7.12746
G1 X91.4 Y114.658 E7.13697
G1 X91.401 Y110.158 E7.28664
G1 X91.411 Y109.455 E7.31003
G1 X91.464 Y108.536 E7.34064
G1 X91.597 Y107.625 E7.37127
G1 X91.808 Y106.729 E7.40188
G1 X92.096 Y105.855 E7.43249
G1 X92.415 Y105.101 E7.45972
G1 X92.772 Y104.342 E7.48762
G1 X93.388 Y103.071 E7.53459
G1 X94.484 Y100.646 E7.6231
G1 X94.899 Y99.824 E7.65373
G1 X95.384 Y99.041 E7.68436
G1 X95.935 Y98.304 E7.71497
G1 X96.548 Y97.617 E7.74559
G0 F6000 X96.883 Y97.846
G1 F1200 X97.545 Y97.232 E7.77563
G1 X98.259 Y96.679 E7.80566
G1 X99.019 Y96.191 E7.8357
G1 X99.819 Y95.772 E7.86574
G1 X100.653 Y95.426 E7.89577
G1 X101.514 Y95.155 E7.92579
G1 X102.396 Y94.961 E7.95583
G1 X103.292 Y94.846 E7.98587
G1 X103.827 Y94.815 E8.0037
G1 X104.149 Y94.805 E8.01441
G1 X104.466 Y94.8 E8.02496
G1 X115.157 Y94.8 E8.38054
G1 X116.003 Y94.811 E8.40868
G1 X116.905 Y94.864 E8.43874
G1 X117.798 Y94.996 E8.46876
G1 X118.677 Y95.207 E8.49883
G1 X119.533 Y95.495 E8.52886
G1 X120.36 Y95.857 E8.55889
G1 X121.152 Y96.291 E8.58893
G1 X121.902 Y96.794 E8.61896
G1 X122.605 Y97.361 E8.649
G1 X123.255 Y97.987 E8.67902
G1 X123.848 Y98.669 E8.70908
G1 X124.377 Y99.401 E8.73912
G1 X124.84 Y100.176 E8.76914
G1 X125.154 Y100.811 E8.7927
G1 X125.584 Y101.763 E8.82745
G1 X125.791 Y102.237 E8.84465
G1 X127.212 Y105.244 E8.95527
G1 X127.561 Y106.077 E8.98531
G1 X127.835 Y106.937 E9.01533
G1 X128.033 Y107.818 E9.04536
G1 X128.151 Y108.714 E9.07542
G1 X128.185 Y109.276 E9.09415
G1 X128.195 Y109.665 E9.10709
G1 X128.2 Y110.117 E9.12212
G1 X128.199 Y114.39 E9.26424
G1 X128.19 Y115.117 E9.28843
G1 X128.139 Y116.019 E9.31847
G1 X128.008 Y116.913 E9.34853
G1 X127.799 Y117.791 E9.37854
G1 X127.513 Y118.648 E9.40859
G1 X127.152 Y119.476 E9.43864
G1 X126.72 Y120.268 E9.46864
G1 X126.219 Y121.02 E9.4987
G1 X125.653 Y121.724 E9.52874
G1 X125.028 Y122.375 E9.55876
G1 X124.347 Y122.969 E9.58881
G1 X123.616 Y123.5 E9.61886
G1 X122.842 Y123.964 E9.64888
G1 X122.029 Y124.358 E9.67893
G1 X121.185 Y124.678 E9.70895
G1 X120.315 Y124.923 E9.73901
G1 X119.428 Y125.089 E9.76902
G1 X118.277 Y125.187 E9.80744
G1 X117.956 Y125.196 E9.81813
G1 X117.67 Y125.2 E9.82764
G1 X102.575 Y125.199 E10.3297
G1 X101.877 Y125.19 E10.35292
G1 X100.976 Y125.139 E10.38293
G1 X100.082 Y125.007 E10.41299
G1 X99.204 Y124.798 E10.44301
G1 X98.347 Y124.511 E10.47307
G1 X97.52 Y124.15 E10.50308
G1 X96.727 Y123.717 E10.53313
G1 X95.976 Y123.216 E10.56316
G1 X95.272 Y122.65 E10.5932
G1 X94.621 Y122.024 E10.62324
G1 X94.028 Y121.343 E10.65328
G1 X93.498 Y120.612 E10.68331
G1 X93.034 Y119.837 E10.71335
G1 X92.64 Y119.024 E10.7434
G1 X92.32 Y118.18 E10.77342
G1 X92.076 Y117.31 E10.80347
G1 X91.91 Y116.422 E10.83352
G1 X91.813 Y115.267 E10.87207
G1 X91.804 Y114.934 E10.88315
G1 X91.8 Y114.658 E10.89233
G1 X91.801 Y110.164 E11.0418
G1 X91.811 Y109.461 E11.06519
G1 X91.864 Y108.559 E11.09524
G1 X91.996 Y107.666 E11.12526
G1 X92.207 Y106.788 E11.1553
G1 X92.495 Y105.932 E11.18533
G1 X92.777 Y105.271 E11.20924
G1 X93.132 Y104.516 E11.23699
G1 X93.755 Y103.231 E11.28448
G1 X94.849 Y100.81 E11.37285
G1 X95.257 Y100.005 E11.40286
G1 X95.734 Y99.238 E11.4329
G1 X96.278 Y98.517 E11.46294
G1 X96.883 Y97.846 E11.49299
G1 F3600 E6.49299
;MESH:White River Sheath - belt spacer.stl
G0 F6000 X103.471 Y105.414
G0 X104.55 Y105.414
G0 X115.082 Y105.782
G0 X115.082 Y108.784
G0 X115.612 Y108.775
G0 X117.225 Y109.99
G0 X117.4 Y114.4
;TYPE:WALL-INNER
G1 F3600 E11.49299
G1 F1200 X102.6 Y114.4 E11.98524
G1 X102.6 Y109.902 E12.13485
G1 X104.33 Y108.602 E12.20682
G1 X104.736 Y108.602 E12.22033
G1 X104.736 Y105.6 E12.32017
G1 X115.264 Y105.6 E12.67034
G1 X115.264 Y108.602 E12.77018
G1 X115.67 Y108.602 E12.78369
G1 X117.4 Y109.902 E12.85566
G1 X117.4 Y114.4 E13.00527
G0 F6000 X117.8 Y114.8
;TYPE:WALL-OUTER
G1 F1200 X102.2 Y114.8 E13.52412
G1 X102.2 Y109.702 E13.69368
G1 X104.196 Y108.202 E13.77673
G1 X104.336 Y108.202 E13.78138
G1 X104.336 Y105.2 E13.88123
G1 X115.664 Y105.2 E14.258
G1 X115.664 Y108.202 E14.35785
G1 X115.804 Y108.202 E14.36251
G1 X117.8 Y109.702 E14.44555
G1 X117.8 Y114.8 E14.61511
G0 F6000 X117.53 Y114.53
G0 X117.29 Y114.01
G0 X117.01 Y114.01
;TYPE:SKIN
G1 F1200 X102.99 Y114.01 E15.08142
G1 X102.99 Y110.097 E15.21156
G1 X104.46 Y108.992 E15.27273
G1 X105.126 Y108.992 E15.29488
G1 X105.126 Y105.99 E15.39473
G1 X114.874 Y105.99 E15.71895
G1 X114.874 Y108.992 E15.81879
G1 X115.54 Y108.992 E15.84095
G1 X117.01 Y110.097 E15.90211
G1 X117.01 Y114.01 E16.03226
G0 F6000 X117.29 Y114.01
G0 X117.225 Y109.99
G0 X115.436 Y108.43
G0 X115.154 Y106.227
G0 X114.713 Y106.227
G1 F1200 X114.635 Y106.15 E16.0359
G0 F6000 X114.069 Y106.15
G1 F1200 X114.713 Y106.793 E16.06617
G0 F6000 X114.713 Y107.359
G1 F1200 X113.504 Y106.15 E16.12304
G0 F6000 X112.938 Y106.15
G1 F1200 X114.713 Y107.925 E16.20653
G0 F6000 X114.713 Y108.49
G1 F1200 X112.372 Y106.15 E16.31662
G0 F6000 X111.807 Y106.15
G1 F1200 X114.713 Y109.056 E16.45331
G0 F6000 X114.809 Y109.152
G1 F1200 X116.849 Y111.192 E16.54926
G0 F6000 X116.849 Y111.758
G1 F1200 X111.241 Y106.15 E16.81305
G0 F6000 X110.675 Y106.15
G1 F1200 X116.849 Y112.323 E17.10343
G0 F6000 X116.849 Y112.889
G1 F1200 X110.109 Y106.15 E17.42044
G0 F6000 X109.543 Y106.149
G1 F1200 X116.849 Y113.455 E17.76409
G0 F6000 X116.678 Y113.849
G1 F1200 X108.977 Y106.149 E18.1263
G0 F6000 X108.412 Y106.149
G1 F1200 X116.112 Y113.849 E18.48848
G0 F6000 X115.546 Y113.849
G1 F1200 X107.846 Y106.149 E18.85066
G0 F6000 X107.28 Y106.149
G1 F1200 X114.981 Y113.849 E19.21287
G0 F6000 X114.415 Y113.849
G1 F1200 X106.715 Y106.149 E19.57506
G0 F6000 X106.149 Y106.149
G1 F1200 X113.849 Y113.849 E19.93724
G0 F6000 X113.284 Y113.849
G1 F1200 X105.583 Y106.149 E20.29945
G0 F6000 X105.286 Y106.417
G1 F1200 X112.718 Y113.849 E20.64903
G0 F6000 X112.152 Y113.849
G1 F1200 X105.286 Y106.983 E20.97198
G0 F6000 X105.286 Y107.548
G1 F1200 X111.587 Y113.849 E21.26836
G0 F6000 X111.021 Y113.849
G1 F1200 X105.286 Y108.114 E21.53812
G0 F6000 X105.286 Y108.68
G1 F1200 X110.455 Y113.849 E21.78125
G0 F6000 X109.89 Y113.849
G1 F1200 X105.191 Y109.151 E22.00226
G0 F6000 X104.625 Y109.151
G1 F1200 X109.324 Y113.849 E22.22326
G0 F6000 X108.758 Y113.849
G1 F1200 X104.255 Y109.346 E22.43507
G0 F6000 X103.931 Y109.588
G1 F1200 X108.192 Y113.849 E22.63549
G0 F6000 X107.627 Y113.849
G1 F1200 X103.608 Y109.831 E22.82451
G0 F6000 X103.285 Y110.073
G1 F1200 X107.061 Y113.849 E23.00212
G0 F6000 X106.495 Y113.849
G1 F1200 X103.149 Y110.503 E23.15951
G0 F6000 X103.149 Y111.069
G1 F1200 X105.93 Y113.849 E23.29029
G0 F6000 X105.364 Y113.849
G1 F1200 X103.149 Y111.635 E23.39446
G0 F6000 X103.149 Y112.2
G1 F1200 X104.798 Y113.849 E23.47202
G0 F6000 X104.233 Y113.849
G1 F1200 X103.149 Y112.766 E23.52298
G0 F6000 X103.149 Y113.332
G1 F1200 X103.667 Y113.849 E23.54733
G0 F6000 X103.667 Y114.29
G0 X117.218 Y114.218
G0 X117.225 Y109.99
G0 X115.612 Y108.775
G0 X115.375 Y109.152
G1 F1200 X116.849 Y110.626 E23.61666
G0 F6000 X117.2 Y110.626
G1 F3600 E18.61666
;MESH:NONMESH
G0 F300 X117.2 Y110.626 Z0.4
G0 F6000 X117.29 Y110.626
G0 X117.4 Y114.4
;TIME_ELAPSED:45.674137
;LAYER:1
M106 S85
;TYPE:WALL-INNER
;MESH:White River Sheath - belt spacer.stl
G1 F3600 E23.61666
G1 F1350 X102.6 Y114.4 E24.10891
G1 X102.6 Y109.902 E24.25851
G1 X104.33 Y108.602 E24.33049
G1 X104.736 Y108.602 E24.34399
G1 X104.736 Y105.6 E24.44384
G1 X115.264 Y105.6 E24.794
G1 X115.264 Y108.602 E24.89385
G1 X115.67 Y108.602 E24.90735
G1 X117.4 Y109.902 E24.97933
G1 X117.4 Y114.4 E25.12893
G0 F6600 X117.8 Y114.8
;TYPE:WALL-OUTER
G1 F1350 X102.2 Y114.8 E25.64779
G1 X102.2 Y109.702 E25.81735
G1 X104.196 Y108.202 E25.90039
G1 X104.336 Y108.202 E25.90505
G1 X104.336 Y105.2 E26.0049
G1 X115.664 Y105.2 E26.38167
G1 X115.664 Y108.202 E26.48151
G1 X115.804 Y108.202 E26.48617
G1 X117.8 Y109.702 E26.56921
G1 X117.8 Y114.8 E26.73877
G0 F6600 X117.53 Y114.53
G0 X117.29 Y114.01
G0 X117.01 Y114.01
;TYPE:SKIN
G1 F1350 X102.99 Y114.01 E27.20508
G1 X102.99 Y110.097 E27.33523
G1 X104.46 Y108.992 E27.39639
G1 X105.126 Y108.992 E27.41854
G1 X105.126 Y105.99 E27.51839
G1 X114.874 Y105.99 E27.84261
G1 X114.874 Y108.992 E27.94246
G1 X115.54 Y108.992 E27.96461
G1 X117.01 Y110.097 E28.02577
G1 X117.01 Y114.01 E28.15592
G0 F6600 X116.384 Y113.849
G1 F1350 X116.849 Y113.384 E28.17779
G0 F6600 X116.849 Y112.818
G1 F1350 X115.818 Y113.849 E28.22629
G0 F6600 X115.252 Y113.849
G1 F1350 X116.849 Y112.253 E28.30138
G0 F6600 X116.849 Y111.687
G1 F1350 X114.687 Y113.849 E28.40308
G0 F6600 X114.121 Y113.849
G1 F1350 X116.849 Y111.121 E28.53139
G0 F6600 X116.849 Y110.556
G1 F1350 X113.555 Y113.849 E28.68631
G0 F6600 X112.99 Y113.849
G1 F1350 X116.743 Y110.096 E28.86284
G0 F6600 X116.42 Y109.853
G1 F1350 X112.424 Y113.849 E29.0508
G0 F6600 X111.858 Y113.849
G1 F1350 X116.097 Y109.611 E29.25017
G0 F6600 X115.773 Y109.368
G1 F1350 X111.292 Y113.849 E29.46094
G0 F6600 X110.727 Y113.849
G1 F1350 X115.424 Y109.152 E29.68187
G0 F6600 X114.858 Y109.152
G1 F1350 X110.161 Y113.849 E29.9028
G0 F6600 X109.595 Y113.849
G1 F1350 X114.713 Y108.732 E30.14351
G0 F6600 X114.713 Y108.166
G1 F1350 X109.03 Y113.849 E30.41083
G0 F6600 X108.464 Y113.849
G1 F1350 X114.713 Y107.601 E30.70474
G0 F6600 X114.713 Y107.035
G1 F1350 X107.898 Y113.849 E31.02527
G0 F6600 X107.333 Y113.849
G1 F1350 X114.713 Y106.469 E31.3724
G0 F6600 X114.467 Y106.149
G1 F1350 X106.767 Y113.849 E31.73459
G0 F6600 X106.201 Y113.849
G1 F1350 X113.902 Y106.149 E32.09679
G0 F6600 X113.336 Y106.149
G1 F1350 X105.636 Y113.849 E32.45898
G0 F6600 X105.07 Y113.849
G1 F1350 X112.77 Y106.149 E32.82116
G0 F6600 X112.205 Y106.149
G1 F1350 X104.504 Y113.849 E33.18337
G0 F6600 X103.939 Y113.849
G1 F1350 X111.639 Y106.149 E33.54555
G0 F6600 X111.073 Y106.149
G1 F1350 X103.373 Y113.849 E33.90774
G0 F6600 X103.149 Y113.507
G1 F1350 X110.508 Y106.149 E34.25386
G0 F6600 X109.943 Y106.148
G1 F1350 X103.149 Y112.941 E34.57341
G0 F6600 X103.149 Y112.376
G1 F1350 X109.377 Y106.148 E34.86635
G0 F6600 X108.811 Y106.148
G1 F1350 X103.149 Y111.81 E35.13267
G0 F6600 X103.149 Y111.244
G1 F1350 X105.243 Y109.151 E35.23115
G0 F6600 X105.286 Y109.108
G1 F1350 X108.246 Y106.148 E35.37038
G0 F6600 X107.68 Y106.148
G1 F1350 X105.286 Y108.543 E35.48301
G0 F6600 X105.286 Y107.977
G1 F1350 X107.114 Y106.148 E35.56901
G0 F6600 X106.548 Y106.148
G1 F1350 X105.286 Y107.411 E35.6284
G0 F6600 X105.286 Y106.845
G1 F1350 X105.983 Y106.148 E35.66118
